report_00007_2020-12-11T15:55:29.892Z/first-meaningful-paint/samples/pages+cached+nointeractive/score/values.svg

<svg width="640" height="490" xmlns="http://www.w3.org/2000/svg" xmlns:xlink="http://www.w3.org/1999/xlink"><path fill="#fff" d="M0 0h640v490H0z"/><defs><path id="d" stroke-width=".222" stroke="currentColor" d="M-1-1h2v2h-2z"/><path id="b" stroke-width=".222" stroke="currentColor" d="M0-1.33l-1.33 2h2.66z"/><path id="f" stroke-width=".222" stroke="currentColor" d="M0 1.33L1.265.411.782-1.067l-1.564-.009-.483 1.487z"/><use xlink:href="#b" id="c" stroke="currentColor" transform="rotate(180)"/><use xlink:href="#d" id="e" stroke="currentColor" transform="rotate(45)"/><circle id="a" stroke-width=".222" stroke="currentColor" cx="0" cy="0" r="1"/></defs><g fill="none" color="#000" stroke="currentColor"><path stroke="#000" d="M70.5 387.4h9m535.5 0h-9"/><text transform="translate(62.2 391.3)" stroke="none" fill="#000" font-family="Arial" font-size="12" text-anchor="end"><tspan>0.925</tspan></text></g><g fill="none" color="#000" stroke="currentColor"><path stroke="#000" d="M70.5 327h9m535.5 0h-9"/><text transform="translate(62.2 330.9)" stroke="none" fill="#000" font-family="Arial" font-size="12" text-anchor="end"><tspan>0.93</tspan></text></g><g fill="none" color="#000" stroke="currentColor"><path stroke="#000" d="M70.5 266.7h9m535.5 0h-9"/><text transform="translate(62.2 270.6)" stroke="none" fill="#000" font-family="Arial" font-size="12" text-anchor="end"><tspan>0.935</tspan></text></g><g fill="none" color="#000" stroke="currentColor"><path stroke="#000" d="M70.5 206.4h9m535.5 0h-9"/><text transform="translate(62.2 210.3)" stroke="none" fill="#000" font-family="Arial" font-size="12" text-anchor="end"><tspan>0.94</tspan></text></g><g fill="none" color="#000" stroke="currentColor"><path stroke="#000" d="M70.5 146.1h9m535.5 0h-9"/><text transform="translate(62.2 150)" stroke="none" fill="#000" font-family="Arial" font-size="12" text-anchor="end"><tspan>0.945</tspan></text></g><g fill="none" color="#000" stroke="currentColor"><path stroke="#000" d="M70.5 85.8h9m535.5 0h-9"/><text transform="translate(62.2 89.7)" stroke="none" fill="#000" font-family="Arial" font-size="12" text-anchor="end"><tspan>0.95</tspan></text></g><g fill="none" color="#000" stroke="currentColor"><path stroke="#000" d="M70.5 25.5h9m535.5 0h-9"/><text transform="translate(62.2 29.4)" stroke="none" fill="#000" font-family="Arial" font-size="12" text-anchor="end"><tspan>0.955</tspan></text></g><g fill="none" color="#000" stroke="currentColor"><path stroke="#000" d="M70.5 436v-9m0-408.9v9"/><text transform="translate(70.5 457.9)" stroke="none" fill="#000" font-family="Arial" font-size="12" text-anchor="middle"><tspan>0</tspan></text></g><g fill="none" color="#000" stroke="currentColor"><path stroke="#000" d="M125.5 436v-9m0-408.9v9"/><text transform="translate(125.5 457.9)" stroke="none" fill="#000" font-family="Arial" font-size="12" text-anchor="middle"><tspan>10</tspan></text></g><g fill="none" color="#000" stroke="currentColor"><path stroke="#000" d="M180.5 436v-9m0-408.9v9"/><text transform="translate(180.5 457.9)" stroke="none" fill="#000" font-family="Arial" font-size="12" text-anchor="middle"><tspan>20</tspan></text></g><g fill="none" color="#000" stroke="currentColor"><path stroke="#000" d="M235.5 436v-9m0-408.9v9"/><text transform="translate(235.5 457.9)" stroke="none" fill="#000" font-family="Arial" font-size="12" text-anchor="middle"><tspan>30</tspan></text></g><g fill="none" color="#000" stroke="currentColor"><path stroke="#000" d="M290.5 436v-9m0-408.9v9"/><text transform="translate(290.5 457.9)" stroke="none" fill="#000" font-family="Arial" font-size="12" text-anchor="middle"><tspan>40</tspan></text></g><g fill="none" color="#000" stroke="currentColor"><path stroke="#000" d="M345.5 436v-9m0-408.9v9"/><text transform="translate(345.5 457.9)" stroke="none" fill="#000" font-family="Arial" font-size="12" text-anchor="middle"><tspan>50</tspan></text></g><g fill="none" color="#000" stroke="currentColor"><path stroke="#000" d="M400.5 436v-9m0-408.9v9"/><text transform="translate(400.5 457.9)" stroke="none" fill="#000" font-family="Arial" font-size="12" text-anchor="middle"><tspan>60</tspan></text></g><g fill="none" color="#000" stroke="currentColor"><path stroke="#000" d="M455.5 436v-9m0-408.9v9"/><text transform="translate(455.5 457.9)" stroke="none" fill="#000" font-family="Arial" font-size="12" text-anchor="middle"><tspan>70</tspan></text></g><g fill="none" color="#000" stroke="currentColor"><path stroke="#000" d="M510.5 436v-9m0-408.9v9"/><text transform="translate(510.5 457.9)" stroke="none" fill="#000" font-family="Arial" font-size="12" text-anchor="middle"><tspan>80</tspan></text></g><g fill="none" color="#000" stroke="currentColor"><path stroke="#000" d="M565.5 436v-9m0-408.9v9"/><text transform="translate(565.5 457.9)" stroke="none" fill="#000" font-family="Arial" font-size="12" text-anchor="middle"><tspan>90</tspan></text></g><path stroke="#000" d="M70.5 18.1V436H615V18.1H70.5z" fill="none" color="#000"/><text transform="translate(334.1 475.9)" stroke="none" fill="#000" font-family="Arial" font-size="12" text-anchor="end" color="#000"><tspan>score</tspan></text><path stroke="#9400D3" d="M342.4 472h42.2M70.5 40.9L76 414.8l5.5-377.9 5.5 1.5 5.5 1.3 5.5-.4 5.5 5.3 5.5 367.8 5.5 7.8 5.5-136.3 5.5 134.1L131 37.2l5.5 1.9 5.5 1.4 5.5-3.2 5.5 3.3 5.5-6 5.5 388.7 5.5-4.9L175 38.5l5.5 379.7L186 39.4l5.5-.6 5.5.9 5.5-3.3 5.5 5.1 5.5 373.7 5.5 4.7 5.5-381.3 5.5 380.2 5.5-131 5.5-9.4 5.5 1.2 5.5 132.8 5.5 5.5 5.5-136.4 5.5-242.1 5.5-.3 5.5 241.6 5.5 135.6 5.5-377.2 5.5 382.7 5.5-5.7L307 41.3l5.5-2.7 5.5-.9 5.5 243.8 5.5 136.4 5.5-380.7 5.5 382.2 5.5-2.8L351 38.4l5.5-1.1 5.5 244.5 5.5-.6 5.5-3.1 5.5 141.8 5.5 1.7 5.5-13.1 5.5 8.2 5.5 7.1 5.5-4L411.5 35l5.5 384.7 5.5.3 5.5-3.5 5.5-377.4 5.5 376.1 5.5 6L450 38.1l5.5 374.4 5.5 4.4 5.5-135.9 5.5 134.8 5.5 4.6 5.5-4.6 5.5 3.2 5.5 2.9 5.5-2.7 5.5-.5 5.5-385.8 5.5 386.3 5.5 3.9L527 35.8l5.5-5.6L538 38l5.5 243.3L549 422l5.5-6.2 5.5-138.4 5.5 141.5 5.5 5 5.5-383.3 5.5 374.2 5.5-1 5.5-1 5.5 1.9 5.5-132.6L609.5 37l5.5 384.4" fill="none" color="#000"/><g fill="none" color="#000" stroke="currentColor"><path stroke="#000" d="M70.5 18.1V436H615V18.1H70.5z"/></g></svg>

<?xml version="1.0" encoding="utf-8"  standalone="no"?>
<svg 
 width="640" height="490"
 viewBox="0 0 640 490"
 xmlns="http://www.w3.org/2000/svg"
 xmlns:xlink="http://www.w3.org/1999/xlink"
>

<title>Gnuplot</title>
<desc>Produced by GNUPLOT 5.4 patchlevel 0 </desc>

<g id="gnuplot_canvas">

<rect x="0" y="0" width="640" height="490" fill="#ffffff"/>
<defs>

	<circle id='gpDot' r='0.5' stroke-width='0.5' stroke='currentColor'/>
	<path id='gpPt0' stroke-width='0.222' stroke='currentColor' d='M-1,0 h2 M0,-1 v2'/>
	<path id='gpPt1' stroke-width='0.222' stroke='currentColor' d='M-1,-1 L1,1 M1,-1 L-1,1'/>
	<path id='gpPt2' stroke-width='0.222' stroke='currentColor' d='M-1,0 L1,0 M0,-1 L0,1 M-1,-1 L1,1 M-1,1 L1,-1'/>
	<rect id='gpPt3' stroke-width='0.222' stroke='currentColor' x='-1' y='-1' width='2' height='2'/>
	<rect id='gpPt4' stroke-width='0.222' stroke='currentColor' fill='currentColor' x='-1' y='-1' width='2' height='2'/>
	<circle id='gpPt5' stroke-width='0.222' stroke='currentColor' cx='0' cy='0' r='1'/>
	<use xlink:href='#gpPt5' id='gpPt6' fill='currentColor' stroke='none'/>
	<path id='gpPt7' stroke-width='0.222' stroke='currentColor' d='M0,-1.33 L-1.33,0.67 L1.33,0.67 z'/>
	<use xlink:href='#gpPt7' id='gpPt8' fill='currentColor' stroke='none'/>
	<use xlink:href='#gpPt7' id='gpPt9' stroke='currentColor' transform='rotate(180)'/>
	<use xlink:href='#gpPt9' id='gpPt10' fill='currentColor' stroke='none'/>
	<use xlink:href='#gpPt3' id='gpPt11' stroke='currentColor' transform='rotate(45)'/>
	<use xlink:href='#gpPt11' id='gpPt12' fill='currentColor' stroke='none'/>
	<path id='gpPt13' stroke-width='0.222' stroke='currentColor' d='M0,1.330 L1.265,0.411 L0.782,-1.067 L-0.782,-1.076 L-1.265,0.411 z'/>
	<use xlink:href='#gpPt13' id='gpPt14' fill='currentColor' stroke='none'/>
	<filter id='textbox' filterUnits='objectBoundingBox' x='0' y='0' height='1' width='1'>
	  <feFlood flood-color='#FFFFFF' flood-opacity='1' result='bgnd'/>
	  <feComposite in='SourceGraphic' in2='bgnd' operator='atop'/>
	</filter>
	<filter id='greybox' filterUnits='objectBoundingBox' x='0' y='0' height='1' width='1'>
	  <feFlood flood-color='lightgrey' flood-opacity='1' result='grey'/>
	  <feComposite in='SourceGraphic' in2='grey' operator='atop'/>
	</filter>
</defs>
<g fill="none" color="#FFFFFF" stroke="black" stroke-width="1.00" stroke-linecap="butt" stroke-linejoin="miter">
</g>
<g fill="none" color="black" stroke="currentColor" stroke-width="1.00" stroke-linecap="butt" stroke-linejoin="miter">
	<path stroke='black'  d='M70.5,387.4 L79.5,387.4 M615.0,387.4 L606.0,387.4  '/>	<g transform="translate(62.2,391.3)" stroke="none" fill="black" font-family="Arial" font-size="12.00"  text-anchor="end">
		<text><tspan font-family="Arial" > 0.925</tspan></text>
	</g>
</g>
<g fill="none" color="black" stroke="currentColor" stroke-width="1.00" stroke-linecap="butt" stroke-linejoin="miter">
	<path stroke='black'  d='M70.5,327.0 L79.5,327.0 M615.0,327.0 L606.0,327.0  '/>	<g transform="translate(62.2,330.9)" stroke="none" fill="black" font-family="Arial" font-size="12.00"  text-anchor="end">
		<text><tspan font-family="Arial" > 0.93</tspan></text>
	</g>
</g>
<g fill="none" color="black" stroke="currentColor" stroke-width="1.00" stroke-linecap="butt" stroke-linejoin="miter">
	<path stroke='black'  d='M70.5,266.7 L79.5,266.7 M615.0,266.7 L606.0,266.7  '/>	<g transform="translate(62.2,270.6)" stroke="none" fill="black" font-family="Arial" font-size="12.00"  text-anchor="end">
		<text><tspan font-family="Arial" > 0.935</tspan></text>
	</g>
</g>
<g fill="none" color="black" stroke="currentColor" stroke-width="1.00" stroke-linecap="butt" stroke-linejoin="miter">
	<path stroke='black'  d='M70.5,206.4 L79.5,206.4 M615.0,206.4 L606.0,206.4  '/>	<g transform="translate(62.2,210.3)" stroke="none" fill="black" font-family="Arial" font-size="12.00"  text-anchor="end">
		<text><tspan font-family="Arial" > 0.94</tspan></text>
	</g>
</g>
<g fill="none" color="black" stroke="currentColor" stroke-width="1.00" stroke-linecap="butt" stroke-linejoin="miter">
	<path stroke='black'  d='M70.5,146.1 L79.5,146.1 M615.0,146.1 L606.0,146.1  '/>	<g transform="translate(62.2,150.0)" stroke="none" fill="black" font-family="Arial" font-size="12.00"  text-anchor="end">
		<text><tspan font-family="Arial" > 0.945</tspan></text>
	</g>
</g>
<g fill="none" color="black" stroke="currentColor" stroke-width="1.00" stroke-linecap="butt" stroke-linejoin="miter">
	<path stroke='black'  d='M70.5,85.8 L79.5,85.8 M615.0,85.8 L606.0,85.8  '/>	<g transform="translate(62.2,89.7)" stroke="none" fill="black" font-family="Arial" font-size="12.00"  text-anchor="end">
		<text><tspan font-family="Arial" > 0.95</tspan></text>
	</g>
</g>
<g fill="none" color="black" stroke="currentColor" stroke-width="1.00" stroke-linecap="butt" stroke-linejoin="miter">
	<path stroke='black'  d='M70.5,25.5 L79.5,25.5 M615.0,25.5 L606.0,25.5  '/>	<g transform="translate(62.2,29.4)" stroke="none" fill="black" font-family="Arial" font-size="12.00"  text-anchor="end">
		<text><tspan font-family="Arial" > 0.955</tspan></text>
	</g>
</g>
<g fill="none" color="black" stroke="currentColor" stroke-width="1.00" stroke-linecap="butt" stroke-linejoin="miter">
	<path stroke='black'  d='M70.5,436.0 L70.5,427.0 M70.5,18.1 L70.5,27.1  '/>	<g transform="translate(70.5,457.9)" stroke="none" fill="black" font-family="Arial" font-size="12.00"  text-anchor="middle">
		<text><tspan font-family="Arial" > 0</tspan></text>
	</g>
</g>
<g fill="none" color="black" stroke="currentColor" stroke-width="1.00" stroke-linecap="butt" stroke-linejoin="miter">
	<path stroke='black'  d='M125.5,436.0 L125.5,427.0 M125.5,18.1 L125.5,27.1  '/>	<g transform="translate(125.5,457.9)" stroke="none" fill="black" font-family="Arial" font-size="12.00"  text-anchor="middle">
		<text><tspan font-family="Arial" > 10</tspan></text>
	</g>
</g>
<g fill="none" color="black" stroke="currentColor" stroke-width="1.00" stroke-linecap="butt" stroke-linejoin="miter">
	<path stroke='black'  d='M180.5,436.0 L180.5,427.0 M180.5,18.1 L180.5,27.1  '/>	<g transform="translate(180.5,457.9)" stroke="none" fill="black" font-family="Arial" font-size="12.00"  text-anchor="middle">
		<text><tspan font-family="Arial" > 20</tspan></text>
	</g>
</g>
<g fill="none" color="black" stroke="currentColor" stroke-width="1.00" stroke-linecap="butt" stroke-linejoin="miter">
	<path stroke='black'  d='M235.5,436.0 L235.5,427.0 M235.5,18.1 L235.5,27.1  '/>	<g transform="translate(235.5,457.9)" stroke="none" fill="black" font-family="Arial" font-size="12.00"  text-anchor="middle">
		<text><tspan font-family="Arial" > 30</tspan></text>
	</g>
</g>
<g fill="none" color="black" stroke="currentColor" stroke-width="1.00" stroke-linecap="butt" stroke-linejoin="miter">
	<path stroke='black'  d='M290.5,436.0 L290.5,427.0 M290.5,18.1 L290.5,27.1  '/>	<g transform="translate(290.5,457.9)" stroke="none" fill="black" font-family="Arial" font-size="12.00"  text-anchor="middle">
		<text><tspan font-family="Arial" > 40</tspan></text>
	</g>
</g>
<g fill="none" color="black" stroke="currentColor" stroke-width="1.00" stroke-linecap="butt" stroke-linejoin="miter">
	<path stroke='black'  d='M345.5,436.0 L345.5,427.0 M345.5,18.1 L345.5,27.1  '/>	<g transform="translate(345.5,457.9)" stroke="none" fill="black" font-family="Arial" font-size="12.00"  text-anchor="middle">
		<text><tspan font-family="Arial" > 50</tspan></text>
	</g>
</g>
<g fill="none" color="black" stroke="currentColor" stroke-width="1.00" stroke-linecap="butt" stroke-linejoin="miter">
	<path stroke='black'  d='M400.5,436.0 L400.5,427.0 M400.5,18.1 L400.5,27.1  '/>	<g transform="translate(400.5,457.9)" stroke="none" fill="black" font-family="Arial" font-size="12.00"  text-anchor="middle">
		<text><tspan font-family="Arial" > 60</tspan></text>
	</g>
</g>
<g fill="none" color="black" stroke="currentColor" stroke-width="1.00" stroke-linecap="butt" stroke-linejoin="miter">
	<path stroke='black'  d='M455.5,436.0 L455.5,427.0 M455.5,18.1 L455.5,27.1  '/>	<g transform="translate(455.5,457.9)" stroke="none" fill="black" font-family="Arial" font-size="12.00"  text-anchor="middle">
		<text><tspan font-family="Arial" > 70</tspan></text>
	</g>
</g>
<g fill="none" color="black" stroke="currentColor" stroke-width="1.00" stroke-linecap="butt" stroke-linejoin="miter">
	<path stroke='black'  d='M510.5,436.0 L510.5,427.0 M510.5,18.1 L510.5,27.1  '/>	<g transform="translate(510.5,457.9)" stroke="none" fill="black" font-family="Arial" font-size="12.00"  text-anchor="middle">
		<text><tspan font-family="Arial" > 80</tspan></text>
	</g>
</g>
<g fill="none" color="black" stroke="currentColor" stroke-width="1.00" stroke-linecap="butt" stroke-linejoin="miter">
	<path stroke='black'  d='M565.5,436.0 L565.5,427.0 M565.5,18.1 L565.5,27.1  '/>	<g transform="translate(565.5,457.9)" stroke="none" fill="black" font-family="Arial" font-size="12.00"  text-anchor="middle">
		<text><tspan font-family="Arial" > 90</tspan></text>
	</g>
</g>
<g fill="none" color="black" stroke="currentColor" stroke-width="1.00" stroke-linecap="butt" stroke-linejoin="miter">
</g>
<g fill="none" color="black" stroke="currentColor" stroke-width="1.00" stroke-linecap="butt" stroke-linejoin="miter">
	<path stroke='black'  d='M70.5,18.1 L70.5,436.0 L615.0,436.0 L615.0,18.1 L70.5,18.1 Z  '/></g>
<g fill="none" color="black" stroke="currentColor" stroke-width="1.00" stroke-linecap="butt" stroke-linejoin="miter">
</g>
	<g id="gnuplot_plot_1" ><title>score</title>
<g fill="none" color="black" stroke="currentColor" stroke-width="1.00" stroke-linecap="butt" stroke-linejoin="miter">
	<g transform="translate(334.1,475.9)" stroke="none" fill="black" font-family="Arial" font-size="12.00"  text-anchor="end">
		<text><tspan font-family="Arial" >score</tspan></text>
	</g>
</g>
<g fill="none" color="black" stroke="currentColor" stroke-width="1.00" stroke-linecap="butt" stroke-linejoin="miter">
	<path stroke='rgb(148,   0, 211)'  d='M342.4,472.0 L384.6,472.0 M70.5,40.9 L76.0,414.8 L81.5,36.9 L87.0,38.4 L92.5,39.7 L98.0,39.3
		L103.5,44.6 L109.0,412.4 L114.5,420.2 L120.0,283.9 L125.5,418.0 L131.0,37.2 L136.5,39.1 L142.0,40.5
		L147.5,37.3 L153.0,40.6 L158.5,34.6 L164.0,423.3 L169.5,418.4 L175.0,38.5 L180.5,418.2 L186.0,39.4
		L191.5,38.8 L197.0,39.7 L202.5,36.4 L208.0,41.5 L213.5,415.2 L219.0,419.9 L224.5,38.6 L230.0,418.8
		L235.5,287.8 L241.0,278.4 L246.5,279.6 L252.0,412.4 L257.5,417.9 L263.0,281.5 L268.5,39.4 L274.0,39.1
		L279.5,280.7 L285.0,416.3 L290.5,39.1 L296.0,421.8 L301.5,416.1 L307.0,41.3 L312.5,38.6 L318.0,37.7
		L323.5,281.5 L329.0,417.9 L334.5,37.2 L340.0,419.4 L345.5,416.6 L351.0,38.4 L356.5,37.3 L362.0,281.8
		L367.5,281.2 L373.0,278.1 L378.5,419.9 L384.0,421.6 L389.5,408.5 L395.0,416.7 L400.5,423.8 L406.0,419.8
		L411.5,35.0 L417.0,419.7 L422.5,420.0 L428.0,416.5 L433.5,39.1 L439.0,415.2 L444.5,421.2 L450.0,38.1
		L455.5,412.5 L461.0,416.9 L466.5,281.0 L472.0,415.8 L477.5,420.4 L483.0,415.8 L488.5,419.0 L494.0,421.9
		L499.5,419.2 L505.0,418.7 L510.5,32.9 L516.0,419.2 L521.5,423.1 L527.0,35.8 L532.5,30.2 L538.0,38.0
		L543.5,281.3 L549.0,422.0 L554.5,415.8 L560.0,277.4 L565.5,418.9 L571.0,423.9 L576.5,40.6 L582.0,414.8
		L587.5,413.8 L593.0,412.8 L598.5,414.7 L604.0,282.1 L609.5,37.0 L615.0,421.4  '/></g>
	</g>
<g fill="none" color="#FFFFFF" stroke="rgb(148,   0, 211)" stroke-width="2.00" stroke-linecap="butt" stroke-linejoin="miter">
</g>
<g fill="none" color="black" stroke="currentColor" stroke-width="2.00" stroke-linecap="butt" stroke-linejoin="miter">
</g>
<g fill="none" color="black" stroke="black" stroke-width="1.00" stroke-linecap="butt" stroke-linejoin="miter">
</g>
<g fill="none" color="black" stroke="currentColor" stroke-width="1.00" stroke-linecap="butt" stroke-linejoin="miter">
	<path stroke='black'  d='M70.5,18.1 L70.5,436.0 L615.0,436.0 L615.0,18.1 L70.5,18.1 Z  '/></g>
<g fill="none" color="black" stroke="currentColor" stroke-width="1.00" stroke-linecap="butt" stroke-linejoin="miter">
</g>
</g>
</svg>
